X: 9603
T: Dawn Chorus
R: reel
M: 4/4
K: Dminor
|"Dm"AD~ED AD~ED|A2cA GAFE|"Am"A,CEA (3efg fe|"Dm/Gm/Bb"dcAG AD~ED|
"Dm"ADED AD~ED|A2cA GAFE|"Am"A,CEA (3efg fe|"(Dm)"dcAG AD~ED:|
|:"Dm"d3e fddg|"Bb"ddad (3def ed|"C"c3e ceBe|"Am"AeGe FeEe|
"Bb"d3e fddg|"Gm"ddad (3def ed|"Am"A,CEA (3efg fe|dcAG A4:|

